Sources/FrostedUI/Resources/Icons.xcassets/closedCaptions24.imageset/closed-captions-24.svg

<svg width="24" height="24" viewBox="0 0 24 24" fill="none" xmlns="http://www.w3.org/2000/svg" data-fui-icon="true">
  <path
    d="M21.3333 4.67C21.7 4.67 22 4.97 22 5.33667V18.67C22 19.0367 21.7 19.3367 21.3333 19.3367H2.66667C2.3 19.3367 2 19.0367 2 18.67V5.33667C2 4.97 2.3 4.67 2.66667 4.67H21.3333ZM2.66667 2.67C1.19583 2.67 0 3.86583 0 5.33667V18.67C0 20.1408 1.19583 21.3367 2.66667 21.3367H21.3333C22.8042 21.3367 24 20.1408 24 18.67V5.33667C24 3.86583 22.8042 2.67 21.3333 2.67H2.66667ZM8.33333 10.0033C8.925 10.0033 9.45833 10.2575 9.825 10.67C10.1917 11.0825 10.825 11.1158 11.2375 10.7492C11.65 10.3825 11.6833 9.74917 11.3167 9.33667C10.5875 8.52 9.52083 8.00333 8.3375 8.00333C6.12917 8.00333 4.3375 9.795 4.3375 12.0033C4.3375 14.2117 6.12917 16.0033 8.3375 16.0033C9.52083 16.0033 10.5875 15.4867 11.3167 14.67C11.6833 14.2575 11.65 13.6283 11.2375 13.2575C10.825 12.8867 10.1958 12.9242 9.825 13.3367C9.45833 13.7492 8.925 14.0033 8.33333 14.0033C7.22917 14.0033 6.33333 13.1075 6.33333 12.0033C6.33333 10.8992 7.22917 10.0033 8.33333 10.0033ZM14.3333 12.0033C14.3333 10.8992 15.2292 10.0033 16.3333 10.0033C16.925 10.0033 17.4583 10.2575 17.825 10.67C18.1917 11.0825 18.825 11.1158 19.2375 10.7492C19.65 10.3825 19.6833 9.74917 19.3167 9.33667C18.5875 8.52 17.5208 8.00333 16.3375 8.00333C14.1292 8.00333 12.3375 9.795 12.3375 12.0033C12.3375 14.2117 14.1292 16.0033 16.3375 16.0033C17.5208 16.0033 18.5875 15.4867 19.3167 14.67C19.6833 14.2575 19.65 13.6283 19.2375 13.2575C18.825 12.8867 18.1958 12.9242 17.825 13.3367C17.4583 13.7492 16.925 14.0033 16.3333 14.0033C15.2292 14.0033 14.3333 13.1075 14.3333 12.0033Z"
    fill="currentColor"
  />
</svg>

<svg xmlns="http://www.w3.org/2000/svg" width="24" height="24" fill="none" data-fui-icon="true" viewBox="0 0 24 24"><path fill="currentColor" d="M21.333 4.67c.367 0 .667.3.667.667V18.67c0 .367-.3.667-.667.667H2.667A.67.67 0 0 1 2 18.67V5.337c0-.367.3-.667.667-.667zm-18.666-2A2.67 2.67 0 0 0 0 5.337V18.67a2.67 2.67 0 0 0 2.667 2.667h18.666A2.67 2.67 0 0 0 24 18.67V5.337a2.67 2.67 0 0 0-2.667-2.667zm5.666 7.333c.592 0 1.125.255 1.492.667a1.001 1.001 0 0 0 1.492-1.333 3.99 3.99 0 0 0-2.98-1.334 4.001 4.001 0 0 0 0 8c1.184 0 2.25-.516 2.98-1.333a1.001 1.001 0 0 0-1.492-1.333 2 2 0 1 1-1.492-3.333m6 2a2 2 0 0 1 3.492-1.333 1.001 1.001 0 0 0 1.492-1.333 3.99 3.99 0 0 0-2.98-1.334 4.001 4.001 0 0 0 0 8c1.184 0 2.25-.516 2.98-1.333a1.001 1.001 0 0 0-1.492-1.333 2 2 0 0 1-3.492-1.333"/></svg>
